X: 37950
T: Spaniard, The
R: hornpipe
M: 4/4
K: Dmajor
FG|:A2 AG FAde|fdAF E2 ed|cded cded|cAGF G2 FG|
A2 AG FAde|fdAF E2 ed|cdef gfed|1 cAGE DEFG:|2 cAGE D2 AG||
|:FAdf af f2|geed e2 ef|geef geed|cdef e2 AG|
FAdf af f2|geed e2 ed|cdef gfed|1 cAGE D2 AG:|2 cAGE D4||

